src/assets/icons/letters,simple,serif-w.svg

<svg width="48" height="48" viewBox="0 0 48 48" fill="none" xmlns="http://www.w3.org/2000/svg">
<rect opacity="0.2" x="5" y="5" width="38" height="38" rx="4" fill="black"/>
<path d="M32.2116 30.18L36.2616 18.6C36.7416 17.26 36.9816 16.26 36.9816 15.6C36.9816 14.98 36.7616 14.58 36.3216 14.4C35.9016 14.2 35.2416 14.1 34.3416 14.1V12.9H42.8616V14.1C42.1016 14.1 41.4116 14.29 40.7916 14.67C40.1916 15.03 39.7316 15.65 39.4116 16.53L32.1816 36.3H29.5116L24.2916 20.46L18.3516 36.3H15.8616L9.50156 18.78C9.12156 17.76 8.77156 16.94 8.45156 16.32C8.13156 15.7 7.79156 15.23 7.43156 14.91C7.07156 14.59 6.68156 14.38 6.26156 14.28C5.84156 14.18 5.34156 14.13 4.76156 14.13V12.9H16.1016V14.13C15.0816 14.13 14.3816 14.23 14.0016 14.43C13.6216 14.61 13.4316 14.92 13.4316 15.36C13.4316 15.52 13.4416 15.68 13.4616 15.84C13.4816 15.98 13.5216 16.15 13.5816 16.35C13.6416 16.53 13.7116 16.76 13.7916 17.04C13.8916 17.32 14.0216 17.67 14.1816 18.09L18.3816 30.18L23.2416 16.92C23.0416 16.38 22.8416 15.94 22.6416 15.6C22.4416 15.26 22.2016 14.99 21.9216 14.79C21.6616 14.59 21.3616 14.45 21.0216 14.37C20.6816 14.27 20.2716 14.19 19.7916 14.13V12.9H30.3816V14.13C29.5416 14.13 28.9216 14.24 28.5216 14.46C28.1216 14.66 27.9216 15.06 27.9216 15.66C27.9216 15.96 27.9616 16.31 28.0416 16.71C28.1416 17.11 28.2716 17.57 28.4316 18.09L32.2116 30.18Z" fill="black"/>
</svg>

<svg xmlns="http://www.w3.org/2000/svg" width="48" height="48" fill="none" viewBox="0 0 48 48">
  <rect width="38" height="38" x="5" y="5" fill="#000" opacity=".2" rx="4"/>
  <path fill="#000" d="M32.212 30.18l4.05-11.58c.48-1.34.72-2.34.72-3 0-.62-.22-1.02-.66-1.2-.42-.2-1.08-.3-1.98-.3v-1.2h8.52v1.2c-.76 0-1.45.19-2.07.57-.6.36-1.06.98-1.38 1.86l-7.23 19.77h-2.67l-5.22-15.84-5.94 15.84h-2.49l-6.36-17.52c-.38-1.02-.73-1.84-1.05-2.46-.32-.62-.66-1.09-1.02-1.41a2.69 2.69 0 00-1.17-.63c-.42-.1-.92-.15-1.5-.15V12.9h11.34v1.23c-1.02 0-1.72.1-2.1.3-.38.18-.57.49-.57.93 0 .16.01.32.03.48.02.14.06.31.12.51.06.18.13.41.21.69.1.28.23.63.39 1.05l4.2 12.09 4.86-13.26c-.2-.54-.4-.98-.6-1.32-.2-.34-.44-.61-.72-.81-.26-.2-.56-.34-.9-.42-.34-.1-.75-.18-1.23-.24V12.9h10.59v1.23c-.84 0-1.46.11-1.86.33-.4.2-.6.6-.6 1.2 0 .3.04.65.12 1.05.1.4.23.86.39 1.38l3.78 12.09z"/>
</svg>
